X: 6493
T: Cat On A Leash
R: reel
M: 4/4
K: Amajor
(3efg|:a2f2 e2c2|c2e(c c)ABc|d2 c2 BABc|d2 c2 BABe|
a2f2 e2c2|c2e(c c)ABc|d2 c2 BAA2|1 FEEF A2(3efg:|2 FEEF A4||
|:E3(E E)FA2|B3(B B)ABc|d2 c2 BABc|d2 c2 BAA2|
E3(E E)FA2|B3(B B)ABc|d2 c2 BAA2|FEEF A4:|

